docs/assets/icons/wan.svg

<?xml version="1.0" encoding="UTF-8"?>
<svg version="1.1" viewBox="0 0 24 24" xmlns="http://www.w3.org/2000/svg"><g transform="matrix(1.1089 0 0 1.1089 -1.3072 -1.6953)"><path d="m11 17.93v1.0703h2v-1.0703zm-9 2.0703v2h7v-2zm13 0v2h7v-2z" fill="#4cae4f"/><path d="m12 2c-4.4183 0-8 3.5817-8 8 0 4.03 3 7.42 7 7.93h2c4-.5 7-3.9 7-7.93 0-4.4183-3.5817-8-8-8m0 2s.74 1.28 1.26 3h-2.52c.52-1.72 1.26-3 1.26-3m-2.23.43c-.27.5-.68 1.41-1.03 2.57h-1.93c.69-1.16 1.69-2.07 2.96-2.57m4.46.01c1.27.5 2.27 1.4 2.96 2.56h-1.93c-.35-1.16-.76-2.07-1.03-2.56m-8.14 4.56h2.23c-.04.33-.07.66-.07 1s.03.67.07 1h-2.23c-.06-.33-.09-.66-.09-1s.03-.67.09-1m4.23 0h3.36c.04.33.07.66.07 1s-.03.67-.07 1h-3.36c-.04-.33-.07-.66-.07-1s.03-.67.07-1m5.36 0h2.23c.06.33.09.66.09 1s-.03.67-.09 1h-2.23c.04-.33.07-.66.07-1s-.03-.67-.07-1m-8.87 4h1.93c.35 1.16.76 2.07 1.03 2.56-1.27-.5-2.27-1.4-2.96-2.56m3.93 0h2.52c-.52 1.72-1.26 3-1.26 3s-.74-1.28-1.26-3m4.52 0h1.93c-.69 1.16-1.69 2.07-2.96 2.57.27-.5.68-1.41 1.03-2.57z" fill="#02a6f2" stroke="#4cae4f" stroke-linecap="round" stroke-linejoin="round" stroke-width=".36071"/><path d="m11 19h-1c-.55228 0-1 .44772-1 1v2c0 .55228.44772 1 1 1h4c.55228 0 1-.44772 1-1v-2c0-.55228-.44772-1-1-1h-1" fill="#02a6f2"/></g></svg>

<?xml version="1.0" encoding="UTF-8" standalone="no"?>
<svg
   viewBox="0 0 24 24"
   version="1.1"
   id="svg1"
   sodipodi:docname="wan.svg"
   inkscape:version="1.4.3 (0d15f75042, 2025-12-25)"
   xmlns:inkscape="http://www.inkscape.org/namespaces/inkscape"
   xmlns:sodipodi="http://sodipodi.sourceforge.net/DTD/sodipodi-0.dtd"
   xmlns="http://www.w3.org/2000/svg"
   xmlns:svg="http://www.w3.org/2000/svg">
  <defs
     id="defs1">
    <filter
       style="color-interpolation-filters:sRGB;"
       inkscape:label="Drop Shadow"
       id="filter32"
       x="-0.16"
       y="-0.24"
       width="1.3866667"
       height="1.58">
      <feFlood
         result="flood"
         in="SourceGraphic"
         flood-opacity="0.498039"
         flood-color="rgb(0,0,0)"
         id="feFlood31" />
      <feGaussianBlur
         result="blur"
         in="SourceGraphic"
         stdDeviation="0.400000"
         id="feGaussianBlur31" />
      <feOffset
         result="offset"
         in="blur"
         dx="0.400000"
         dy="0.400000"
         id="feOffset31" />
      <feComposite
         result="comp1"
         operator="in"
         in="flood"
         in2="offset"
         id="feComposite31" />
      <feComposite
         result="comp2"
         operator="over"
         in="SourceGraphic"
         in2="comp1"
         id="feComposite32" />
    </filter>
    <filter
       style="color-interpolation-filters:sRGB;"
       inkscape:label="Drop Shadow"
       id="filter34"
       x="-0.060000001"
       y="-0.060263654"
       width="1.145"
       height="1.1456372">
      <feFlood
         result="flood"
         in="SourceGraphic"
         flood-opacity="0.498039"
         flood-color="rgb(0,0,0)"
         id="feFlood32" />
      <feGaussianBlur
         result="blur"
         in="SourceGraphic"
         stdDeviation="0.400000"
         id="feGaussianBlur32" />
      <feOffset
         result="offset"
         in="blur"
         dx="0.400000"
         dy="0.400000"
         id="feOffset32" />
      <feComposite
         result="comp1"
         operator="in"
         in="flood"
         in2="offset"
         id="feComposite33" />
      <feComposite
         result="comp2"
         operator="over"
         in="SourceGraphic"
         in2="comp1"
         id="feComposite34" />
    </filter>
    <filter
       style="color-interpolation-filters:sRGB;"
       inkscape:label="Drop Shadow"
       id="filter36"
       x="-0.048000001"
       y="-0.23585416"
       width="1.116"
       height="1.5699809">
      <feFlood
         result="flood"
         in="SourceGraphic"
         flood-opacity="0.498039"
         flood-color="rgb(0,0,0)"
         id="feFlood34" />
      <feGaussianBlur
         result="blur"
         in="SourceGraphic"
         stdDeviation="0.400000"
         id="feGaussianBlur34" />
      <feOffset
         result="offset"
         in="blur"
         dx="0.400000"
         dy="0.400000"
         id="feOffset34" />
      <feComposite
         result="comp1"
         operator="in"
         in="flood"
         in2="offset"
         id="feComposite35" />
      <feComposite
         result="comp2"
         operator="over"
         in="SourceGraphic"
         in2="comp1"
         id="feComposite36" />
    </filter>
    <filter
       style="color-interpolation-filters:sRGB;"
       inkscape:label="Drop Shadow"
       id="filter2"
       x="-0.048000001"
       y="-0.045714286"
       width="1.116"
       height="1.1104762">
      <feFlood
         result="flood"
         in="SourceGraphic"
         flood-opacity="0.498039"
         flood-color="rgb(0,0,0)"
         id="feFlood1" />
      <feGaussianBlur
         result="blur"
         in="SourceGraphic"
         stdDeviation="0.400000"
         id="feGaussianBlur1" />
      <feOffset
         result="offset"
         in="blur"
         dx="0.400000"
         dy="0.400000"
         id="feOffset1" />
      <feComposite
         result="comp1"
         operator="in"
         in="flood"
         in2="offset"
         id="feComposite1" />
      <feComposite
         result="comp2"
         operator="over"
         in="SourceGraphic"
         in2="comp1"
         id="feComposite2" />
    </filter>
    <filter
       style="color-interpolation-filters:sRGB;"
       inkscape:label="Drop Shadow"
       id="filter4"
       x="-0.036000001"
       y="-0.048571431"
       width="1.097"
       height="1.1066667">
      <feFlood
         result="flood"
         in="SourceGraphic"
         flood-opacity="0.498039"
         flood-color="rgb(0,0,0)"
         id="feFlood2" />
      <feGaussianBlur
         result="blur"
         in="SourceGraphic"
         stdDeviation="0.300000"
         id="feGaussianBlur2" />
      <feOffset
         result="offset"
         in="blur"
         dx="0.500000"
         dy="0.500000"
         id="feOffset2" />
      <feComposite
         result="comp1"
         operator="in"
         in="flood"
         in2="offset"
         id="feComposite3" />
      <feComposite
         result="comp2"
         operator="over"
         in="SourceGraphic"
         in2="comp1"
         id="feComposite4" />
    </filter>
  </defs>
  <sodipodi:namedview
     id="namedview1"
     pagecolor="#929292"
     bordercolor="#000000"
     borderopacity="0.25"
     inkscape:showpageshadow="2"
     inkscape:pageopacity="0.0"
     inkscape:pagecheckerboard="true"
     inkscape:deskcolor="#858585"
     inkscape:zoom="45.254834"
     inkscape:cx="11.545728"
     inkscape:cy="12.241786"
     inkscape:window-width="2560"
     inkscape:window-height="1368"
     inkscape:window-x="0"
     inkscape:window-y="0"
     inkscape:window-maximized="1"
     inkscape:current-layer="svg1" />
  <g
     id="g1"
     transform="matrix(1.1089293,0,0,1.1089293,-1.3071516,-1.6952768)">
    <path
       id="path3"
       style="display:inline;fill:#4cae4f;fill-opacity:1"
       d="M 11,17.929688 V 19 h 2 V 17.929688 Z M 2,20 v 2 h 7 v -2 z m 13,0 v 2 h 7 v -2 z"
       inkscape:label="wire" />
    <path
       d="m 12,2 c -4.418278,0 -8,3.581722 -8,8 0,4.03 3,7.42 7,7.93 h 2 c 4,-0.5 7,-3.9 7,-7.93 0,-4.418278 -3.581722,-8 -8,-8 m 0,2 c 0,0 0.74,1.28 1.26,3 H 10.74 C 11.26,5.28 12,4 12,4 M 9.77,4.43 C 9.5,4.93 9.09,5.84 8.74,7 H 6.81 C 7.5,5.84 8.5,4.93 9.77,4.43 m 4.46,0.01 C 15.5,4.94 16.5,5.84 17.19,7 H 15.26 C 14.91,5.84 14.5,4.93 14.23,4.44 M 6.09,9 h 2.23 c -0.04,0.33 -0.07,0.66 -0.07,1 0,0.34 0.03,0.67 0.07,1 H 6.09 C 6.03,10.67 6,10.34 6,10 6,9.66 6.03,9.33 6.09,9 m 4.23,0 h 3.36 c 0.04,0.33 0.07,0.66 0.07,1 0,0.34 -0.03,0.67 -0.07,1 h -3.36 c -0.04,-0.33 -0.07,-0.66 -0.07,-1 0,-0.34 0.03,-0.67 0.07,-1 m 5.36,0 h 2.23 c 0.06,0.33 0.09,0.66 0.09,1 0,0.34 -0.03,0.67 -0.09,1 h -2.23 c 0.04,-0.33 0.07,-0.66 0.07,-1 0,-0.34 -0.03,-0.67 -0.07,-1 M 6.81,13 H 8.74 C 9.09,14.16 9.5,15.07 9.77,15.56 8.5,15.06 7.5,14.16 6.81,13 m 3.93,0 h 2.52 C 12.74,14.72 12,16 12,16 c 0,0 -0.74,-1.28 -1.26,-3 m 4.52,0 h 1.93 c -0.69,1.16 -1.69,2.07 -2.96,2.57 0.27,-0.5 0.68,-1.41 1.03,-2.57 z"
       id="path1"
       style="display:inline;fill:#02a6f2;fill-opacity:1;stroke:#4cae4f;stroke-width:0.6;stroke-linecap:round;stroke-linejoin:round;stroke-dasharray:none;stroke-opacity:1"
       sodipodi:nodetypes="csccscccccccccccccccsccscccsccscccsccsccccccccccccc"
       inkscape:label="globe" />
    <path
       d="m 11,19 h -1 c -0.5522847,0 -1,0.447715 -1,1 v 2 c 0,0.552285 0.4477153,1 1,1 h 4 c 0.552285,0 1,-0.447715 1,-1 v -2 c 0,-0.552285 -0.447715,-1 -1,-1 h -1"
       id="path2"
       style="display:inline;fill:#02a6f2;fill-opacity:1"
       sodipodi:nodetypes="csccssccsc"
       inkscape:label="box" />
  </g>
</svg>
